X:1
T:Greenwich, CM
T:Greenwich, CM
T:William Richardson, 1729
T:Public Domain Courtesy of the Cyber Hymnal™
C:William Richardson, 1729
Z:Public Domain
Z:Courtesy of the Cyber Hymnal™
%%score ( 1 2 ) ( 3 4 )
L:1/8
Q:1/4=110
M:4/4
K:Bb
V:1 treble 
V:2 treble 
V:3 bass 
V:4 bass 
V:1
 [DF]2 | [DB]2 [Fd]2 [Fc]2 F2 | [GB]2 [=EG]2 [FA]2 [FB]2 | G2 E2 [B,C]2 [A,F]2 | [B,D]6 [CF]2 | %5
 [B,D]2 [CF]2 B2 [FA]2 | [FG]2 [=Ec]2 [FA]2 [FB]2 | [EG]2 (ed) [Gc]2 (BA) | [FB]6 |] %9
V:2
 x2 | x6 F2 | x8 | (ED) (CB,) x4 | x8 | x4 (D=E) x2 | x8 | x2 G2 x F2 x | x6 |] %9
V:3
 [B,,B,]2 | [B,,B,]2 B,2 [A,C]2 [B,D]2 | [G,D]2 [C,C]2 [F,C]2 [B,,D]2 | %3
 [E,B,]2 [E,G,]2 F,2 [F,,F,]2 | [B,,F,]6 [F,A,]2 | [B,D]2 [A,C]2 [G,B,]2 [F,C]2 | %6
 [C,C]2 [C,C]2 [F,C]2 [D,B,]2 | [E,B,]2 ([C,C][D,B,]) (CE) (DC) | [B,,D]6 |] %9
V:4
 x2 | x2 B,2 x4 | x8 | x4 F,2 x2 | x8 | x8 | x8 | x4 E,2 F,2 | x6 |] %9

